.local/share/icons/Gruvbox-Plus-Dark/panel/16/fcitx-erbi-panel.svg

<svg xmlns="http://www.w3.org/2000/svg" width="16" height="16" version="1.1">
 <defs>
  <style id="current-color-scheme" type="text/css">
   .ColorScheme-Text { color:#ebdbb2; } .ColorScheme-Highlight { color:#458588; }
  </style>
 </defs>
 <path style="fill:currentColor" class="ColorScheme-Text" d="M 2 0 C 0.892 0 0 0.892 0 2 L 0 14 C 0 15.108 0.892 16 2 16 L 14 16 C 15.108 16 16 15.108 16 14 L 16 2 C 16 0.892 15.108 0 14 0 L 2 0 z M 10.03125 0.9921875 L 11.03125 1.0078125 C 11.021062 1.6879602 11.043325 2.3455896 11.068359 3 L 14 3 L 14 4 L 11.117188 4 C 11.266012 6.3082376 11.59863 8.4006193 12.007812 10.033203 C 12.298113 11.191476 12.623593 12.126867 12.919922 12.742188 C 13.068086 13.049847 13.212807 13.276703 13.316406 13.398438 C 13.362586 13.452697 13.314985 13.4285 13.328125 13.4375 C 13.566495 13.373903 13.699315 13.283743 13.806641 13.007812 C 13.928284 12.695071 13.982734 12.196257 13.990234 11.632812 L 14.990234 11.644531 C 14.982169 12.251378 14.943272 12.842118 14.738281 13.369141 C 14.533291 13.896164 14.078213 14.368195 13.435547 14.480469 A 0.50005 0.50005 0 0 1 13.355469 14.486328 C 12.983482 14.491132 12.747916 14.273927 12.554688 14.046875 C 12.361456 13.819823 12.190941 13.531708 12.019531 13.175781 C 11.676713 12.463927 11.341014 11.480154 11.039062 10.275391 C 10.609645 8.5620428 10.265475 6.3930814 10.115234 4 L 2 4 L 2 3 L 10.070312 3 C 10.045744 2.3399811 10.020971 1.6784048 10.03125 0.9921875 z M 13 1 C 13.416833 1.3789393 13.758179 1.7765262 14.023438 2.1933594 L 13.056641 2.7617188 C 12.829277 2.3448854 12.525423 1.928552 12.146484 1.5117188 L 13 1 z M 3 5 L 9 5 L 9 6 L 3 6 L 3 5 z M 3 7 L 9 7 L 9 8 L 3 8 L 3 7 z M 3 9 L 4 9 L 9 9 L 9 12 L 8 12 L 8 10 L 4 10 L 4 12 L 3 12 L 3 10 L 3 9 z M 5.0097656 11 L 6.0917969 11 C 6.0085254 12.204012 5.7080472 13.115307 5.1621094 13.693359 C 4.5179127 14.413344 3.3626453 14.848424 1.6953125 15 L 1.2402344 14.033203 C 2.7559915 13.881627 3.7593321 13.540281 4.2519531 13.009766 C 4.6817255 12.579993 4.9281536 11.902276 5.0097656 11 z M 6.703125 11.998047 C 7.6504731 12.452774 8.5225869 12.983541 9.3183594 13.589844 L 8.5214844 14.5 C 7.7636059 13.855803 6.9309387 13.30629 6.0214844 12.851562 L 6.703125 11.998047 z"/>
</svg>

<svg width="16" height="16" version="1.1" xmlns="http://www.w3.org/2000/svg">
  <defs>
    <style id="current-color-scheme" type="text/css">.ColorScheme-Text { color:#ebdbb2; } .ColorScheme-Highlight { color:#458588; } .ColorScheme-NeutralText { color:#fe8019; } .ColorScheme-PositiveText { color:#689d6a; } .ColorScheme-NegativeText { color:#fb4934; }</style>
  </defs>
  <path class="ColorScheme-Text" d="m2 0c-1.108 0-2 0.892-2 2v12c0 1.108 0.892 2 2 2h12c1.108 0 2-0.892 2-2v-12c0-1.108-0.892-2-2-2h-12zm8.031 0.9922 1 0.01562c-0.01019 0.6801 0.01208 1.338 0.03711 1.992h2.932v1h-2.883c0.1488 2.308 0.4814 4.401 0.8906 6.033 0.2903 1.158 0.6158 2.094 0.9121 2.709 0.1482 0.3077 0.2929 0.5345 0.3965 0.6562 0.04618 0.05426-0.001421 0.03006 0.01172 0.03906 0.2384-0.0636 0.3712-0.1538 0.4785-0.4297 0.1216-0.3127 0.1761-0.8116 0.1836-1.375l1 0.01172c-0.008065 0.6068-0.04696 1.198-0.252 1.725-0.205 0.527-0.6601 0.9991-1.303 1.111a0.5 0.5 0 0 1-0.08008 0.005859c-0.372 0.004804-0.6076-0.2124-0.8008-0.4395-0.1932-0.2271-0.3637-0.5152-0.5352-0.8711-0.3428-0.7119-0.6785-1.696-0.9805-2.9-0.4294-1.713-0.7736-3.882-0.9238-6.275h-8.115v-1h8.07c-0.02457-0.66-0.04934-1.322-0.03906-2.008zm2.969 0.007812c0.4168 0.3789 0.7582 0.7765 1.023 1.193l-0.9668 0.5684c-0.2274-0.4168-0.5312-0.8332-0.9102-1.25l0.8535-0.5117zm-10 4h6v1h-6v-1zm0 2h6v1h-6v-1zm0 2h1 5v3h-1v-2h-4v2h-1v-2-1zm2.01 2h1.082c-0.08327 1.204-0.3837 2.115-0.9297 2.693-0.6442 0.72-1.799 1.155-3.467 1.307l-0.4551-0.9668c1.516-0.1516 2.519-0.4929 3.012-1.023 0.4298-0.4298 0.6762-1.107 0.7578-2.01zm1.693 0.998c0.9473 0.4547 1.819 0.9855 2.615 1.592l-0.7969 0.9102c-0.7579-0.6442-1.591-1.194-2.5-1.648l0.6816-0.8535z" fill="currentColor"/>
</svg>
